src/pos-icons/calendar-heart.svg

<svg height="24" viewBox="0 0 24 24" width="24" xmlns="http://www.w3.org/2000/svg"><path d="m19 20v-11h-14v11zm-3-18h2v2h1a2 2 0 0 1 2 2v14a2 2 0 0 1 -2 2h-14a2 2 0 0 1 -2-2v-14a2 2 0 0 1 2-2h1v-2h2v2h8zm-4 16.17-.58-.53c-2.06-1.87-3.42-3.1-3.42-4.61 0-1.23.97-2.2 2.2-2.2.7 0 1.36.32 1.8.83.44-.51 1.1-.83 1.8-.83 1.23 0 2.2.97 2.2 2.2 0 1.51-1.36 2.74-3.42 4.61z"/></svg>

<?xml version="1.0" encoding="UTF-8"?><!DOCTYPE svg PUBLIC "-//W3C//DTD SVG 1.1//EN" "http://www.w3.org/Graphics/SVG/1.1/DTD/svg11.dtd"><svg xmlns="http://www.w3.org/2000/svg" xmlns:xlink="http://www.w3.org/1999/xlink" version="1.1" id="mdi-calendar-heart" width="24" height="24" viewBox="0 0 24 24"><path d="M19,20V9H5V20H19M16,2H18V4H19A2,2 0 0,1 21,6V20A2,2 0 0,1 19,22H5A2,2 0 0,1 3,20V6A2,2 0 0,1 5,4H6V2H8V4H16V2M12,18.17L11.42,17.64C9.36,15.77 8,14.54 8,13.03C8,11.8 8.97,10.83 10.2,10.83C10.9,10.83 11.56,11.15 12,11.66C12.44,11.15 13.1,10.83 13.8,10.83C15.03,10.83 16,11.8 16,13.03C16,14.54 14.64,15.77 12.58,17.64L12,18.17Z" /></svg>
